X: 40553
T: Tommy Peoples'
R: reel
M: 4/4
K: Gmajor
"G"GDDB cDBD|"D"ADDG FGAF|"G" GDDB cDBD|"D"Addc AGFA|
"G"GDDB cDBD|"D"ADDG FGAF|"G"GDDB cDBD|"D"Addc AGBd|
"C9"g2dg egdg|"G"gabg agdg|"C9"g2dg egdB|"D"cBAc "G"BGG2|
"C9"g2dg egdg|"G"gabg agdg|"C9"g2dg egdB|"D"cBAc "C7"BGG2|

